src/img/icons/chevron-up.svg

<svg width="32" height="32" viewBox="0 0 32 32" fill="none" xmlns="http://www.w3.org/2000/svg">
<path d="M16.0021 11.1706L4.85569 22.6745C4.64284 22.8944 4.38689 23.0029 4.08785 22.9999C3.78856 22.9972 3.53248 22.8859 3.31964 22.6659C3.10654 22.4463 3 22.182 3 21.8731C3 21.5644 3.10654 21.3001 3.31963 21.0802L14.3603 9.69372C14.5936 9.45291 14.8537 9.27709 15.1407 9.16625C15.428 9.05542 15.7151 9 16.0021 9C16.2891 9 16.5763 9.05542 16.8635 9.16625C17.1505 9.27709 17.4107 9.45291 17.644 9.69372L28.6846 21.0891C28.8977 21.3088 29.0028 21.5716 28.9999 21.8775C28.9973 22.1835 28.8894 22.4463 28.6763 22.6659C28.4635 22.8859 28.2074 22.9958 27.9081 22.9958C27.6091 22.9958 27.353 22.8859 27.1399 22.6659L16.0021 11.1706Z" fill="#131212"/>
</svg>

<svg xmlns="http://www.w3.org/2000/svg" viewBox="0 0 32 32">
  <path fill="currentColor" d="M16.002 11.17 4.856 22.675c-.213.22-.47.329-.768.326a1.044 1.044 0 0 1-.768-.334 1.098 1.098 0 0 1-.32-.793 1.1 1.1 0 0 1 .32-.793L14.36 9.694c.234-.241.494-.417.78-.528.288-.11.575-.166.862-.166.287 0 .574.055.861.166.288.111.548.287.781.528l11.04 11.395c.214.22.319.483.316.789-.003.305-.11.568-.324.788a1.03 1.03 0 0 1-.768.33 1.03 1.03 0 0 1-.768-.33L16.002 11.17Z"/>
</svg>
